src/lib/packages/icons/src/assets/line/rotate-circle.svg

<svg width="24" height="24" viewBox="0 0 24 24" fill="none" xmlns="http://www.w3.org/2000/svg">
<path d="M17.0701 13.3069C16.4891 15.6279 14.404 17.25 12 17.25C10.556 17.25 9.218 16.648 8.25 15.656V16C8.25 16.414 7.914 16.75 7.5 16.75C7.086 16.75 6.75 16.414 6.75 16V13.5C6.75 13.086 7.086 12.75 7.5 12.75H7.78809C7.79609 12.75 7.80304 12.75 7.81104 12.75H10C10.414 12.75 10.75 13.086 10.75 13.5C10.75 13.914 10.414 14.25 10 14.25H9.00488C9.70088 15.176 10.802 15.75 12 15.75C13.715 15.75 15.201 14.5961 15.615 12.9431C15.716 12.5411 16.1309 12.2999 16.5239 12.3979C16.9269 12.4979 17.1711 12.9049 17.0701 13.3069ZM16.5 7.25C16.086 7.25 15.75 7.586 15.75 8V8.34399C14.782 7.35199 13.444 6.75 12 6.75C9.596 6.75 7.51093 8.37212 6.92993 10.6931C6.82893 11.0951 7.07407 11.502 7.47607 11.603C7.53707 11.618 7.59794 11.625 7.65894 11.625C7.99494 11.625 8.30099 11.3979 8.38599 11.0569C8.79999 9.40388 10.286 8.25 12.001 8.25C13.199 8.25 14.3001 8.824 14.9961 9.75H14C13.586 9.75 13.25 10.086 13.25 10.5C13.25 10.914 13.586 11.25 14 11.25H16.186C16.195 11.251 16.2039 11.25 16.2129 11.25H16.5C16.914 11.25 17.25 10.914 17.25 10.5V8C17.25 7.586 16.914 7.25 16.5 7.25ZM22.75 12C22.75 17.928 17.928 22.75 12 22.75C6.072 22.75 1.25 17.928 1.25 12C1.25 6.072 6.072 1.25 12 1.25C17.928 1.25 22.75 6.072 22.75 12ZM21.25 12C21.25 6.899 17.101 2.75 12 2.75C6.899 2.75 2.75 6.899 2.75 12C2.75 17.101 6.899 21.25 12 21.25C17.101 21.25 21.25 17.101 21.25 12Z" fill="currentColor"/>
</svg>

<svg xmlns="http://www.w3.org/2000/svg" width="24" height="24" fill="none"><path fill="currentColor" d="M17.07 13.307A5.213 5.213 0 0 1 12 17.25a5.24 5.24 0 0 1-3.75-1.594V16a.75.75 0 0 1-1.5 0v-2.5a.75.75 0 0 1 .75-.75H10a.75.75 0 0 1 0 1.5h-.995A3.75 3.75 0 0 0 12 15.75a3.714 3.714 0 0 0 3.615-2.807.755.755 0 0 1 .909-.545c.403.1.647.507.546.909ZM16.5 7.25a.75.75 0 0 0-.75.75v.344A5.24 5.24 0 0 0 12 6.75a5.213 5.213 0 0 0-5.07 3.943.75.75 0 1 0 1.456.364 3.714 3.714 0 0 1 3.615-2.807c1.198 0 2.3.574 2.995 1.5H14a.75.75 0 0 0 0 1.5h2.5a.75.75 0 0 0 .75-.75V8a.75.75 0 0 0-.75-.75ZM22.75 12c0 5.928-4.822 10.75-10.75 10.75S1.25 17.928 1.25 12 6.072 1.25 12 1.25 22.75 6.072 22.75 12Zm-1.5 0c0-5.101-4.149-9.25-9.25-9.25S2.75 6.899 2.75 12s4.149 9.25 9.25 9.25 9.25-4.149 9.25-9.25Z"/></svg>
